X:3224
T:Colonel Rodney
R:reel
Z:id:hn-reel-541
M:C|
K:A
cA~A2 eAce|eaga fedc|dB~B2 fBde|fefg afed|
cA~A2 eAce|eaga fedc|defg agaf|1 (3efg ae cAAB:|2 (3efg ae cAAf||
|:e2ce Aece|aAgA fAeg|f2df Bfdf|bBaB gBfB|
e2ce aece|eaga fedc|defg agaf|1 (3efg ae cAAf:|2 (3efg ae cAAB||


